X: 301
T: Miss Millar's Strathspey
C: by J Pringle
N: fixed typo in composer's name ;-)
B: John Pringle "Collection of Reels Strathspeys & Jigs", 1801 p.30#1
Z: 2011 John Chambers <jc:trillian.mit.edu>
R: strathspey
M: C
L: 1/8
K: D
V: 1
G | F<AA>B A>FD>F | A>FDd {c}TB2Bd | F<AA>B A>FDF | G>ABG {F}E2E :|
G | F>AD>A F>GAG | F>ADd {c}B2~Bd | F>AD>A B>cdB | (B/A/G/F/) d>F {F}E2EG |
    F>AD>A F>GAG | FA Df/d/ {c}B2Bc | d<fc<e B<dA>F | (B/A/).G/.F/ d>F D2D |]
V: 2 clef=bass middle=d
z | [d2D2][d2D2] [d2D2][d2D2] | [d2D2][d2D2] [g2G2][g2G2] |\
    [d2D2][d2D2] [d2D2][d2D2] | [g2G2][^g2^G2] [a2A2][aA] :|
z | [d2D2][d2D2] [d2D2][d2D2] | [d2D2][f2F2] [g2G2][g2G2] |\
    d2f2 g2G2 | g2d2 c2A2 |
	[d2D2][d2D2] [d2D2][d2D2] | [d2D2][f2F2] [g2G2][g2G2] |\
	[d2D2][a2A2] [g2G2][f2F2] | [g2G2][a2A2] [d2D2][dD] :\

%%sep 2 1 500

